src/lib/packages/icons/src/assets/filled/shield-star.svg

<svg width="24" height="24" viewBox="0 0 24 24" fill="none" xmlns="http://www.w3.org/2000/svg">
<path d="M12.0181 2C9.77807 3.111 8 4 3 5C3 6.137 3 9.70192 3 10.8889C3 17.5559 8.667 20.889 12 22C15.333 20.889 21 17.5559 21 10.8889C21 9.66392 21 6.194 21 5C16 4 14.2221 3.111 12.0181 2ZM16.106 11L14.5759 12.48C14.4639 12.588 14.4129 12.744 14.4399 12.897L14.79 14.9221C14.861 15.3331 14.4279 15.6459 14.0559 15.4529L12.22 14.4951C12.082 14.4231 11.918 14.4231 11.781 14.4951L9.94604 15.4519C9.57404 15.6459 9.13994 15.3319 9.21094 14.9199L9.56104 12.897C9.58704 12.744 9.53605 12.588 9.42505 12.48L7.89502 11C7.61402 10.728 7.76898 10.253 8.15698 10.198L10.2739 9.89307C10.4279 9.87107 10.5609 9.77499 10.6299 9.63599L11.5471 7.79297C11.7331 7.41897 12.2701 7.41897 12.4561 7.79297L13.373 9.63599C13.442 9.77499 13.575 9.87107 13.729 9.89307L15.8459 10.198C16.2329 10.253 16.387 10.728 16.106 11Z" fill="currentColor"/>
</svg>

<svg xmlns="http://www.w3.org/2000/svg" width="24" height="24" fill="none"><path fill="currentColor" d="M12.018 2C9.778 3.111 8 4 3 5v5.889c0 6.667 5.667 10 9 11.111 3.333-1.111 9-4.444 9-11.111V5c-5-1-6.778-1.889-8.982-3Zm4.088 9-1.53 1.48a.466.466 0 0 0-.136.417l.35 2.025a.506.506 0 0 1-.734.53l-1.836-.957a.473.473 0 0 0-.439 0l-1.835.957a.506.506 0 0 1-.735-.532l.35-2.023a.472.472 0 0 0-.136-.417L7.895 11a.47.47 0 0 1 .262-.802l2.117-.305a.472.472 0 0 0 .356-.257l.917-1.843a.508.508 0 0 1 .91 0l.916 1.843a.472.472 0 0 0 .356.257l2.117.305a.47.47 0 0 1 .26.802Z"/></svg>
